openmetadata-ui/src/main/resources/ui/src/assets/svg/data-quality.svg

<svg width="16" height="16" viewBox="0 0 16 16" fill="none" xmlns="http://www.w3.org/2000/svg">
<path d="M5.73521 13.1523C6.46807 13.1534 7.1998 13.0947 7.92302 12.9767C8.25404 13.63 8.75915 14.18 9.38303 14.5665C10.0069 14.9529 10.7255 15.1609 11.4601 15.1676C12.1947 15.1743 12.917 14.9795 13.5479 14.6045C14.1788 14.2295 14.6939 13.6888 15.0369 13.0417C15.3799 12.3945 15.5375 11.6657 15.4925 10.9353C15.4474 10.2048 15.2015 9.50077 14.7815 8.90027C14.3616 8.29977 13.7839 7.82596 13.1117 7.53073C12.4395 7.23551 11.6987 7.13025 10.9704 7.22648V2.22505C10.9704 0.933649 8.27328 0.238281 5.73521 0.238281C3.19713 0.238281 0.5 0.933649 0.5 2.22505V11.1655C0.5 12.4569 3.19713 13.1523 5.73521 13.1523ZM5.73521 12.6556C2.9431 12.6556 0.998591 11.8703 0.998591 11.1655V9.06971C1.89381 9.79065 3.85751 10.1721 5.73521 10.1721C6.37429 10.1729 7.01265 10.129 7.64556 10.0407C7.40241 10.8489 7.42812 11.7137 7.71885 12.5061C7.06243 12.6062 6.39928 12.6562 5.73521 12.6556ZM14.9591 11.1655C14.9591 11.8531 14.7544 12.5254 14.3709 13.0971C13.9874 13.6689 13.4424 14.1145 12.8046 14.3777C12.1669 14.6408 11.4651 14.7097 10.7881 14.5755C10.1111 14.4414 9.48921 14.1102 9.0011 13.624C8.513 13.1377 8.1806 12.5182 8.04593 11.8438C7.91126 11.1694 7.98038 10.4703 8.24454 9.83497C8.5087 9.19966 8.95604 8.65665 9.52999 8.27461C10.1039 7.89257 10.7787 7.68865 11.469 7.68865C12.3943 7.68964 13.2815 8.05627 13.9358 8.70809C14.5901 9.35991 14.9581 10.2437 14.9591 11.1655ZM5.73521 0.734973C8.52732 0.734973 10.4718 1.52024 10.4718 2.22505C10.4718 2.92985 8.52732 3.71512 5.73521 3.71512C2.9431 3.71512 0.998591 2.92985 0.998591 2.22505C0.998591 1.52024 2.9431 0.734973 5.73521 0.734973ZM0.998591 3.10941C1.89381 3.83035 3.85751 4.21181 5.73521 4.21181C7.6129 4.21181 9.5766 3.83035 10.4718 3.10941V5.2052C10.4718 5.91 8.52732 6.69527 5.73521 6.69527C2.9431 6.69527 0.998591 5.91 0.998591 5.2052V3.10941ZM0.998591 6.08956C1.89381 6.8105 3.85751 7.19196 5.73521 7.19196C7.6129 7.19196 9.5766 6.8105 10.4718 6.08956V7.32284C9.89969 7.47133 9.36773 7.74436 8.91424 8.12226C8.46075 8.50016 8.09702 8.97353 7.84923 9.50828C7.15026 9.62095 6.44326 9.67684 5.73521 9.67542C2.9431 9.67542 0.998591 8.89015 0.998591 8.18535V6.08956Z" fill="currentColor" stroke="currentColor" stroke-width="0.4"/>
<path d="M1.6399 4.9874C1.72349 5.02658 1.81183 5.06426 1.90366 5.10069C1.96487 5.12343 2.03257 5.12126 2.0922 5.09465C2.15184 5.06804 2.19867 5.01911 2.22264 4.95837C2.24661 4.89762 2.24582 4.8299 2.22042 4.76973C2.19503 4.70957 2.14706 4.66176 2.08681 4.63656C2.00463 4.60412 1.9262 4.57035 1.8515 4.53525C1.79154 4.50719 1.72289 4.5041 1.66066 4.52665C1.59842 4.54921 1.54769 4.59557 1.51963 4.65553C1.49157 4.71548 1.48847 4.78413 1.51103 4.84637C1.53359 4.90861 1.57994 4.95934 1.6399 4.9874Z" fill="currentColor" stroke="currentColor" stroke-width="0.4"/>
<path d="M2.93641 5.41199C3.02042 5.43179 3.10609 5.45042 3.19343 5.46789C3.20985 5.47122 3.22658 5.47281 3.24333 5.47263C3.30522 5.47269 3.36491 5.44976 3.41084 5.40828C3.45676 5.3668 3.48564 5.30974 3.49185 5.24817C3.49807 5.18661 3.48119 5.12492 3.44449 5.0751C3.40779 5.02528 3.35389 4.99087 3.29324 4.97855C3.2109 4.96209 3.1303 4.94437 3.05119 4.92615C3.01894 4.91768 2.98531 4.91576 2.9523 4.92051C2.91929 4.92526 2.88756 4.93657 2.859 4.95379C2.83043 4.97101 2.80561 4.99378 2.786 5.02075C2.76638 5.04772 2.75237 5.07836 2.7448 5.11084C2.73723 5.14332 2.73624 5.17698 2.7419 5.20985C2.74756 5.24272 2.75975 5.27412 2.77776 5.30219C2.79576 5.33027 2.81921 5.35445 2.84671 5.37331C2.87422 5.39217 2.90523 5.40532 2.93791 5.41199H2.93641Z" fill="currentColor" stroke="currentColor" stroke-width="0.4"/>
<path d="M10.7937 12.8299C10.8405 12.8765 10.9039 12.9026 10.97 12.9027C10.978 12.9027 10.9862 12.9027 10.9949 12.9014C11.0316 12.8978 11.067 12.8861 11.0986 12.8672C11.1302 12.8483 11.1572 12.8227 11.1776 12.7921L13.172 9.81199C13.1902 9.78486 13.2028 9.75442 13.2092 9.72243C13.2155 9.69043 13.2155 9.6575 13.2091 9.62551C13.2027 9.59353 13.19 9.56312 13.1718 9.53601C13.1536 9.5089 13.1302 9.48563 13.1029 9.46753C13.0757 9.44943 13.0452 9.43686 13.013 9.43052C12.9809 9.42418 12.9479 9.4242 12.9158 9.43059C12.8837 9.43698 12.8531 9.4496 12.8259 9.46775C12.7987 9.48589 12.7753 9.50919 12.7572 9.53633L10.9313 12.2647L10.149 11.4853C10.102 11.4401 10.0391 11.4151 9.97369 11.4156C9.90833 11.4162 9.8458 11.4423 9.79958 11.4884C9.75336 11.5344 9.72714 11.5967 9.72657 11.6618C9.726 11.7269 9.75113 11.7897 9.79654 11.8365L10.7937 12.8299Z" fill="currentColor" stroke="currentColor" stroke-width="0.4"/>
</svg>

<svg xmlns="http://www.w3.org/2000/svg" width="16" height="16" fill="none"><path fill="currentColor" stroke="currentColor" stroke-width=".4" d="M5.735 13.152c.733.001 1.465-.057 2.188-.175a3.994 3.994 0 0 0 1.46 1.59 4.015 4.015 0 0 0 5.654-1.525A3.976 3.976 0 0 0 14.78 8.9a4.017 4.017 0 0 0-3.811-1.674V2.225C10.97.934 8.273.238 5.735.238 3.197.238.5.934.5 2.225v8.94c0 1.292 2.697 1.987 5.235 1.987Zm0-.496C2.943 12.656 1 11.87 1 11.166V9.07c.895.72 2.859 1.102 4.736 1.102.64 0 1.278-.043 1.91-.131a3.897 3.897 0 0 0 .074 2.465c-.657.1-1.32.15-1.984.15Zm9.224-1.49c0 .687-.205 1.36-.588 1.931a3.503 3.503 0 0 1-5.37.527 3.473 3.473 0 0 1-.756-3.789 3.48 3.48 0 0 1 1.285-1.56 3.5 3.5 0 0 1 4.406.433 3.474 3.474 0 0 1 1.023 2.457ZM5.735.735c2.792 0 4.737.785 4.737 1.49s-1.945 1.49-4.737 1.49S1 2.93 1 2.225 2.943.735 5.735.735ZM1 3.109c.895.721 2.859 1.103 4.736 1.103 1.878 0 3.842-.382 4.737-1.103v2.096c0 .705-1.945 1.49-4.737 1.49S1 5.91 1 5.205V3.11Zm0 2.98c.895.721 2.859 1.103 4.736 1.103 1.878 0 3.842-.381 4.737-1.102v1.233a4.004 4.004 0 0 0-2.623 2.185c-.699.113-1.406.169-2.114.167C2.943 9.675 1 8.89 1 8.185V6.09Z"/><path fill="currentColor" stroke="currentColor" stroke-width=".4" d="M1.64 4.987c.083.04.172.077.264.114a.25.25 0 0 0 .183-.464 4.05 4.05 0 0 1-.236-.102.25.25 0 0 0-.211.452ZM2.936 5.412c.084.02.17.038.257.056a.25.25 0 1 0 .1-.49 8.506 8.506 0 0 1-.242-.052.25.25 0 1 0-.113.486h-.002ZM10.794 12.83a.25.25 0 0 0 .176.073c.008 0 .016 0 .025-.002a.25.25 0 0 0 .183-.109l1.994-2.98a.248.248 0 0 0-.346-.344.248.248 0 0 0-.069.068l-1.826 2.729-.782-.78a.25.25 0 0 0-.422.177c-.001.065.024.128.07.174l.997.994Z"/></svg>
